X: 29
T:Capers
R:Jig
C:Jerry Holland
Z:Added by Alf Warnock
M:6/8
L:1/8
K:C
|EDE CEG|FEF Adc|BAB az^f|g^fa g2F|
EDE CEG|FEF Adc|BAB a2B|[1 c3 cGF:|[2 c3 c2z|
|:G,CE Gce|ag^f g2e|cBc E2G|FEF FEF|
DFA d2e|[1 =fef ABc|BAB a^fa|g3 g^fg:|[2 =fef A2c'|bag fed|c3 cGF|]

